X: 10542
Q: "Moderate."
M: 3/4
L: 1/8
K: Dm
[|\
c2A2f2 | e4d2 | ^c4d2 | e2d2e2 |\
c3BA2 | B3AG2 | A4G2 | F4E2 |\
a4g2 | g4f2 |\
e2c2e2 | f4d2 | g2c2A2 | a2g2f2 |\
g3fe2 | f4a2 | a4g2 | g4f2 |\
e2c2e2 | f4d2 | g2c2A2 | a2g2f2 |\
g3fe2 | a2(ba)(gf) | g2(ag)(fe) |
f2(gf)(ed) |\
f2(gf)e2 | a2(ba)(gf) | g2(ag)(fe) | f2(gf)(ed) |\
f2(gf)e2 | d2D2D2 | D2E2F2 | F2G2A2 |\


